X:1
T:The Anniversary Waltz
T:The Anniversary Waltz
T:Al Dubin and Dave Franklin
C:Al Dubin, Dave Franklin
Z:All Rights Reserved
L:1/4
M:3/4
K:C
V:1 treble nm="Electric Piano"
%%MIDI program 4
V:1
"C" G G G |"G" B B3/2 A/ |"C" G G2- |"Dm7" G2"G7" z/ E/ |"C" G G G |"G" B2 A |"C" G3- | G3 | %8
w: We just dis-|cov- ered each|oth- er|* to-|night when the|lights were|low||
"A7" F F F |"Dm" A A3/2 A/ |"A" F F2- |"Dm" F2 F |"Am" E E E |"D7" B2 A |"Dm7" D3 |"G7" G3 |: %16
w: one dance led|up to an-|oth- er|* and|now I cant|let you|go|so|
"C" C2"Em7" D | E2 G |"C" A2"Em" B |"C" A2 G | A/c/ A/G/ A |"Db" A2 E |"G7" G3- | G3 | D2"Em" E | %25
w: Tell me|I may|al- ways|dance the|an- ni- ver- sa- ry|waltz with|you||tell me|
"Dm7" F2 A |"G7" B2"Dm7" c |"G7" B2 G |"Dm7" A/c/ A/G/ A |"G7" A2 B |"C" A3- | A2 G | %32
w: this is|real ro-|mance an|an- ni- ver- sa- ry|dream come|true|* let|
"C7" d d3/2 c/ | d d3/2 c/ |"C7" _B"F" A3/2 E/ |"Am7" G2"Dm7" F |"A" A A3/2 G/ | A A3/2 G/ | %38
w: this be the|an- them to|our fu- ture|years to|mil- lions of|smiles and a|
"D7" E B3/2 A/ |"G" ^D3 |"C" C2"Em7" D |"C" E2"Em7" G |"C" A2"Em" B |"A7" A2 A |"D7" c/B/ A/B/ c | %45
w: few lit- tle|tears|May I|al- ways|lis- ten|to the|an- ni- ver- sa- ry|
"G7" B2 G |"C" c3- |"Dm7" c2"G7" z :|"C" c3- | c2 z |] %50
w: waltz with|you||you.||

